public/assets/icons/rewind.svg

<?xml version='1.0' encoding='utf-8'?>
<svg version="1.1" xmlns="http://www.w3.org/2000/svg" viewBox="0 0 129 129" xmlns:xlink="http://www.w3.org/1999/xlink" enable-background="new 0 0 129 129">
  <g>
    <path d="m67.2,34.2c-1.5-0.6-3.3-0.3-4.5,0.9l-26.4,26.5c-0.8,0.8-1.2,1.8-1.2,2.9s0.4,2.1 1.2,2.9l26.5,26.5c0.8,0.8 1.8,1.2 2.9,1.2 0.5,0 1.1-0.1 1.6-0.3 1.5-0.6 2.5-2.1 2.5-3.8v-14.3l17.2,17.2c0.8,0.8 1.8,1.2 2.9,1.2 0.5,0 1.1-0.1 1.6-0.3 1.5-0.6 2.5-2.1 2.5-3.8v-53c0-1.7-1-3.2-2.5-3.8-1.5-0.6-3.3-0.3-4.5,0.9l-17.2,17.2v-14.3c0-1.6-1-3.1-2.6-3.8zm-5.7,28v4.6 14.3l-16.5-16.6 16.6-16.6v14.3zm24.1-14.3v33.2l-16-16v-1.2l16-16z"/>
  </g>
</svg>

<?xml version="1.0" encoding="utf-8"?>
<!-- Generator: Adobe Illustrator 23.0.4, SVG Export Plug-In . SVG Version: 6.00 Build 0)  -->
<svg version="1.1" id="Layer_1" xmlns="http://www.w3.org/2000/svg" xmlns:xlink="http://www.w3.org/1999/xlink" x="0px" y="0px"
	 viewBox="0 0 129 129" style="enable-background:new 0 0 129 129;" xml:space="preserve">
<style type="text/css">
	.st0{fill:#FFFFFF;}
</style>
<g>
	<path class="st0" d="M67.2,34.2c-1.5-0.6-3.3-0.3-4.5,0.9L36.3,61.6c-0.8,0.8-1.2,1.8-1.2,2.9s0.4,2.1,1.2,2.9l26.5,26.5
		c0.8,0.8,1.8,1.2,2.9,1.2c0.5,0,1.1-0.1,1.6-0.3c1.5-0.6,2.5-2.1,2.5-3.8V76.7L87,93.9c0.8,0.8,1.8,1.2,2.9,1.2
		c0.5,0,1.1-0.1,1.6-0.3C93,94.2,94,92.7,94,91V38c0-1.7-1-3.2-2.5-3.8s-3.3-0.3-4.5,0.9L69.8,52.3V38
		C69.8,36.4,68.8,34.9,67.2,34.2L67.2,34.2z M61.5,62.2v4.6v14.3L45,64.5l16.6-16.6v14.3L61.5,62.2z M85.6,47.9v33.2l-16-16v-1.2
		C69.6,63.9,85.6,47.9,85.6,47.9z"/>
</g>
</svg>
